dist/images/grace/location2.svg

<svg width="126" height="126" viewBox="0 0 126 126" fill="none" xmlns="http://www.w3.org/2000/svg">
<circle cx="63" cy="63" r="61.5" stroke="#E2704C" stroke-width="3"/>
<path d="M80.9591 33H42.0396L33.1279 46.9445V53.9416C33.1279 57.1493 34.8976 59.9501 37.5109 61.4235V94H85.7533V61.2694C88.2206 59.7597 89.8708 57.0398 89.8708 53.9416V46.9445L80.9591 33ZM44.2184 36.9782H78.78L84.2496 45.5367H38.7489L44.2184 36.9782ZM66.1369 90.0218H55.4551V71.7632H66.1369V90.0218ZM70.1151 90.0218V67.785H51.4769V90.0218H41.4891V62.5207C41.5636 62.5226 41.6377 62.5264 41.7127 62.5264C44.3606 62.5264 46.7324 61.3215 48.3082 59.4309C49.8841 61.3214 52.2558 62.5264 54.9037 62.5264C57.5516 62.5264 59.9234 61.3215 61.4992 59.4309C63.0754 61.3214 65.447 62.5264 68.0947 62.5264C70.7425 62.5264 73.1144 61.3215 74.6903 59.4309C76.2664 61.3214 78.638 62.5264 81.2858 62.5264C81.4499 62.5264 81.6128 62.5207 81.7747 62.5115V90.0217H70.1151V90.0218ZM85.8926 53.9416C85.8925 56.4815 83.826 58.548 81.2861 58.548C78.7462 58.548 76.6797 56.4815 76.6797 53.9416H72.7014C72.7014 56.4815 70.6349 58.548 68.095 58.548C65.555 58.548 63.4884 56.4815 63.4884 53.9416H59.5102C59.5102 56.4815 57.4437 58.548 54.9037 58.548C52.3638 58.548 50.2973 56.4815 50.2973 53.9416H46.3191C46.3191 56.4815 44.2526 58.548 41.7126 58.548C39.1726 58.548 37.1062 56.4815 37.1062 53.9416V49.5149H85.8925V53.9416H85.8926Z" fill="#373737"/>
</svg>

<svg width="126" height="126" fill="none" xmlns="http://www.w3.org/2000/svg"><circle cx="63" cy="63" r="61.5" stroke="#E2704C" stroke-width="3"/><path d="M80.96 33H42.04l-8.912 13.944v6.998a8.59 8.59 0 004.383 7.481V94h48.242V61.27a8.587 8.587 0 004.118-7.328v-6.998L80.959 33zm-36.742 3.978H78.78l5.47 8.559H38.749l5.47-8.559zm21.919 53.044H55.455V71.763h10.682v18.259zm3.978 0V67.785H51.477v22.237h-9.988V62.52c.075.002.149.005.224.005a8.57 8.57 0 006.595-3.095 8.57 8.57 0 006.596 3.095 8.57 8.57 0 006.595-3.095 8.57 8.57 0 006.596 3.095 8.57 8.57 0 006.595-3.095 8.57 8.57 0 007.085 3.08v27.51h-11.66zm15.778-36.08a4.612 4.612 0 01-4.607 4.606 4.612 4.612 0 01-4.606-4.606H72.7a4.612 4.612 0 01-4.606 4.606 4.612 4.612 0 01-4.607-4.606H59.51a4.612 4.612 0 01-4.606 4.606 4.612 4.612 0 01-4.607-4.606H46.32a4.612 4.612 0 01-4.606 4.606 4.612 4.612 0 01-4.607-4.606v-4.427h48.786v4.427z" fill="#373737"/></svg>
